X: 3
T:GKW
% Nottingham Music Database
%P:AAB
S:Trad
M:4/4
L:1/4
K:G
%P:A
"G"GG G"D"A|"G"G"C"G "D"D2|"C"E"G"D "C"E"D7"F|"G"G2 G2|
%P:A
"G"GG G"D"A|"G"G"C"G "D"D2|"C"E"G"D "C"E"D7"F|"G"G2 G2|
%P:B
"G"d"D"c "G"B"D"A|"G"B"D"A "Em"G2|"C"E"G"D "C"E"D7"F|"G"G2 G2|"G"DD "C"E"D"F|\
"Em"GG "D7"A-"c"A|"G/b"d"C"c "G"B"D"A|"Em"G2 "C"c2|"G"G4||<end>
<start>
